svgs/sharp-regular/nfc-magnifying-glass.svg

<svg xmlns="http://www.w3.org/2000/svg" viewBox="0 0 640 512"><!--! Font Awesome Pro 6.6.0 by @fontawesome - https://fontawesome.com License - https://fontawesome.com/license (Commercial License) Copyright 2024 Fonticons, Inc. --><path d="M400 80L48 80l0 352 285.7 0c29 29.6 69.5 48 114.3 48l-48 0L48 480 0 480l0-48L0 80 0 32l48 0 352 0 48 0 0 48 0 80c-16.7 0-32.8 2.6-48 7.3L400 80zm-32 56l0 45.4c-18.7 10.8-35.1 25.4-48 42.6l0-64-72 0 0 54.4c14.3 8.3 24 23.8 24 41.6c0 26.5-21.5 48-48 48s-48-21.5-48-48c0-17.8 9.7-33.3 24-41.6l0-78.4 0-24 24 0 120 0 24 0 0 24zM309.4 400L104 400l-24 0 0-24 0-240 0-24 24 0 32 0 24 0 0 48-24 0-8 0 0 192 163.2 0c3.5 17.2 9.7 33.3 18.2 48zm138.6 .2a80 80 0 1 0 0-160 80 80 0 1 0 0 160zm0 48c-70.7 0-128-57.3-128-128s57.3-128 128-128s128 57.3 128 128c0 26.7-8.2 51.4-22.1 71.9l63 62.6 17 16.9-33.8 34-17-16.9L520 426c-20.5 14-45.3 22.1-72 22.1z"/></svg>

<svg xmlns="http://www.w3.org/2000/svg" viewBox="0 0 640 512"><!--! Font Awesome Pro 6.5.2 by @fontawesome - https://fontawesome.com License - https://fontawesome.com/license (Commercial License) Copyright 2024 Fonticons, Inc. --><path d="M400 80H48V432H333.7c29 29.6 69.5 48 114.3 48H400 48 0V432 80 32H48 400h48V80v80c-16.7 0-32.8 2.6-48 7.3V80zm-32 56v45.4c-18.7 10.8-35.1 25.4-48 42.6V160H248v54.4c14.3 8.3 24 23.8 24 41.6c0 26.5-21.5 48-48 48s-48-21.5-48-48c0-17.8 9.7-33.3 24-41.6V136 112h24H344h24v24zM309.4 400H104 80V376 136 112h24 32 24v48H136h-8V352H291.2c3.5 17.2 9.7 33.3 18.2 48zm138.6 .2a80 80 0 1 0 0-160 80 80 0 1 0 0 160zm0 48c-70.7 0-128-57.3-128-128s57.3-128 128-128s128 57.3 128 128c0 26.7-8.2 51.4-22.1 71.9l63 62.6 17 16.9-33.8 34-17-16.9L520 426c-20.5 14-45.3 22.1-72 22.1z"/></svg>
